packages/katcn/src/icons/svg/horizontalAlignLeft-solid.svg

<svg width="24" height="25" viewBox="0 0 24 25" fill="none" xmlns="http://www.w3.org/2000/svg">
<path d="M17.1 8.41201V5.91201C17.1 4.41201 15.9 3.31201 14.5 3.31201H4.6C3.2 3.31201 2 4.51201 2 5.91201V8.41201C2 9.91201 3.2 11.012 4.6 11.012H14.4C15.9 11.012 17.1 9.81201 17.1 8.41201Z" fill="black"/>
<path d="M2 15.912V18.412C2 19.912 3.2 21.012 4.6 21.012H19.3C20.8 21.012 21.9 19.812 21.9 18.412V15.912C21.9 14.412 20.7 13.312 19.3 13.312H4.6C3.2 13.312 2 14.512 2 15.912Z" fill="black"/>
</svg>

<svg xmlns="http://www.w3.org/2000/svg" fill="none" viewBox="0 0 24 25"><path fill="#000" d="M17.1 8.412v-2.5c0-1.5-1.2-2.6-2.6-2.6H4.6c-1.4 0-2.6 1.2-2.6 2.6v2.5c0 1.5 1.2 2.6 2.6 2.6h9.8c1.5 0 2.7-1.2 2.7-2.6M2 15.912v2.5c0 1.5 1.2 2.6 2.6 2.6h14.7c1.5 0 2.6-1.2 2.6-2.6v-2.5c0-1.5-1.2-2.6-2.6-2.6H4.6c-1.4 0-2.6 1.2-2.6 2.6"/></svg>
